!!!COM: Palestrina, Giovanni Perluigi da
!!!OPR: Missa De Beata Marie Virginis (I)
!!!OMD: Gloria
!!!OTL: Glorificamus te
**kern	**kern	**kern	**kern	**kern
*Ibass	*Itenor	*Itenor	*Icalto	*Icant
!Bassus	!Tenor 2	!Tenor 1	!Altus	!Cantus
*clefF4	*clefGv2	*clefGv2	*clefG2	*clefG2
*k[]	*k[]	*k[]	*k[]	*k[]
*G:mix	*G:mix	*G:mix	*G:mix	*G:mix
*M4/2	*M4/2	*M4/2	*M4/2	*M4/2
=19	=19	=19	=19	=19
0r	0r	0r	0r	1dd
.	.	.	.	[1ee
=20	=20	=20	=20	=20
0r	0r	0r	1g	2ee]
.	.	.	.	2dd
.	.	.	[1a	2cc
.	.	.	.	4b
.	.	.	.	4a
=21	=21	=21	=21	=21
0r	0r	0r	2a]	2cc
.	.	.	2g	1dd
.	.	.	2f	.
.	.	.	4e	4cc
.	.	.	4d	4b
=22	=22	=22	=22	=22
0r	0r	1r	2f#	2a
.	.	.	1g	2b
.	.	1d	.	1a
.	.	.	2f#	.
=23	=23	=23	=23	=23
1r	0r	1.e	2g	0g
.	.	.	2c	.
1G	.	.	2c	.
.	.	[2d	2B	.
=24	=24	=24	=24	=24
1.A	0r	4d]	1e	1r
.	.	4c	.	.
.	.	4B	.	.
.	.	4A	.	.
.	.	2c	1e	2r
2G	.	2B	.	2g
=25	=25	=25	=25	=25
2F	1r	2A	1d	1.a
4E	.	4G	.	.
4D	.	4F	.	.
2F	1d	2A	1r	.
2G	.	2B	.	[2g
=26	=26	=26	=26	=26
4C	1.e	1c	0g	2g]
4D	.	.	.	.
4E	.	.	.	2.cc
4F	.	.	.	.
1G	.	2r	.	.
.	.	.	.	4b
.	2d	[2G	.	4b
.	.	.	.	8cc
.	.	.	.	8dd
=27	=27	=27	=27	=27
1C	1c	2G]	1.e	1.ee
.	.	1g	.	.
2E	2B	.	.	.
2F	2A	2f	2a	4cc
.	.	.	.	4dd
=28	=28	=28	=28	=28
1.C	0c	2.e	2g	4ee
.	.	.	.	4ff
.	.	.	4c	2gg
.	.	4d	4d	.
.	.	2c	4e	1g
.	.	.	4f	.
2E	.	2G	[2g	.
=29	=29	=29	=29	=29
0D	[0d	0A	2g]	2.dd
.	.	.	4f#	.
.	.	.	4e	8cc
.	.	.	.	8b
.	.	.	1f#	4a
.	.	.	.	4g
.	.	.	.	2a
=30	=30	=30	=30	=30
[0G	1d_	[0G	[0g	[0b
.	1d_	.	.	.
=31	=31	=31	=31	=31
0G]	0d]	0G]	0g]	0b]
*-	*-	*-	*-	*-
!!!CDT: 1525/^1526/-1594/2/2
!!!OCY: Italia
!!!AGN: Mass (Paraphrase)
!!!AST: renaissance, vocal
!!!ASW: Gregorian Mass
!!!PWK: Masses, Book Mantuan I
!!!RNB: Cadence finals: D
!!!YOR: Le Opere Complete, v. 18, p. 83
!!!YOO: Rome, Italy: Fratelli Scalera
!!!END: 1992//
!!!EED: John Miller
!!!YEC: Copyright 2000, John Miller
!!!YEN: United States of America
!!!YEM: Rights to all derivative electronic formats reserved.
!!!YEM: Refer to licensing agreement for further details.
!!!YEM: This file must be accompanied by the licensing agreement.
!!!YEM: A copy of the licensing agreement may be found at http://www.music-cog.ohio-state.edu/HumdrumDatabases/Palestrina/license.txt
!!!EMD: converted to Humdrum by Bret Aarden
